lib/svg/unverified.svg

<svg xmlns="http://www.w3.org/2000/svg" width="16" height="16" viewBox="0 0 16 16"><path d="M15.67 7.06l-1.08-1.34c-.17-.22-.28-.48-.31-.77l-.19-1.7a1.51 1.51 0 0 0-1.33-1.33l-1.7-.19c-.3-.03-.56-.16-.78-.33L8.94.32c-.55-.44-1.33-.44-1.88 0L5.72 1.4c-.22.17-.48.28-.77.31l-1.7.19c-.7.08-1.25.63-1.33 1.33l-.19 1.7c-.03.3-.16.56-.33.78L.32 7.05c-.44.55-.44 1.33 0 1.88l1.08 1.34c.17.22.28.48.31.77l.19 1.7c.08.7.63 1.25 1.33 1.33l1.7.19c.3.03.56.16.78.33l1.34 1.08c.55.44 1.33.44 1.88 0l1.34-1.08c.22-.17.48-.28.77-.31l1.7-.19c.7-.08 1.25-.63 1.33-1.33l.19-1.7c.03-.3.16-.56.33-.78l1.08-1.34c.44-.55.44-1.33 0-1.88zM9 11.5c0 .28-.22.5-.5.5h-1c-.27 0-.5-.22-.5-.5v-1c0-.28.23-.5.5-.5h1c.28 0 .5.22.5.5v1zm1.56-4.89c-.06.17-.17.33-.3.47-.13.16-.14.19-.33.38-.16.17-.31.3-.52.45-.11.09-.2.19-.28.27-.08.08-.14.17-.19.27-.05.1-.08.19-.11.3-.03.11-.03.13-.03.25H7.13c0-.22 0-.31.03-.48.03-.19.08-.36.14-.52.06-.14.14-.28.25-.42.11-.13.23-.25.41-.38.27-.19.36-.3.48-.52.12-.22.2-.38.2-.59 0-.27-.06-.45-.2-.58-.13-.13-.31-.19-.58-.19-.09 0-.19.02-.3.05-.11.03-.17.09-.25.16-.08.07-.14.11-.2.2a.41.41 0 0 0-.09.28h-2c0-.38.13-.56.27-.83.16-.27.36-.5.61-.67.25-.17.55-.3.88-.38.33-.08.7-.13 1.09-.13.44 0 .83.05 1.17.13.34.09.63.22.88.39.23.17.41.38.55.63.13.25.19.55.19.88 0 .22 0 .42-.08.59l-.02-.01z"/></svg>

<?xml version="1.0" encoding="UTF-8" standalone="no"?>
<svg width="16px" height="16px" viewBox="0 0 16 16" version="1.1" xmlns="http://www.w3.org/2000/svg" xmlns:xlink="http://www.w3.org/1999/xlink">
    <!-- Generator: Sketch 3.8.3 (29802) - http://www.bohemiancoding.com/sketch -->
    <title>unverified</title>
    <desc>Created with Sketch.</desc>
    <defs></defs>
    <g id="Octicons" stroke="none" stroke-width="1" fill="none" fill-rule="evenodd">
        <g id="unverified" fill="#000000">
            <path d="M15.67,7.06 L14.59,5.72 C14.42,5.5 14.31,5.24 14.28,4.95 L14.09,3.25 C14.01,2.55 13.46,2 12.76,1.92 L11.06,1.73 C10.76,1.7 10.5,1.57 10.28,1.4 L8.94,0.32 C8.39,-0.12 7.61,-0.12 7.06,0.32 L5.72,1.4 C5.5,1.57 5.24,1.68 4.95,1.71 L3.25,1.9 C2.55,1.98 2,2.53 1.92,3.23 L1.73,4.93 C1.7,5.23 1.57,5.49 1.4,5.71 L0.32,7.05 C-0.12,7.6 -0.12,8.38 0.32,8.93 L1.4,10.27 C1.57,10.49 1.68,10.75 1.71,11.04 L1.9,12.74 C1.98,13.44 2.53,13.99 3.23,14.07 L4.93,14.26 C5.23,14.29 5.49,14.42 5.71,14.59 L7.05,15.67 C7.6,16.11 8.38,16.11 8.93,15.67 L10.27,14.59 C10.49,14.42 10.75,14.31 11.04,14.28 L12.74,14.09 C13.44,14.01 13.99,13.46 14.07,12.76 L14.26,11.06 C14.29,10.76 14.42,10.5 14.59,10.28 L15.67,8.94 C16.11,8.39 16.11,7.61 15.67,7.06 L15.67,7.06 Z M9,11.5 C9,11.78 8.78,12 8.5,12 L7.5,12 C7.23,12 7,11.78 7,11.5 L7,10.5 C7,10.22 7.23,10 7.5,10 L8.5,10 C8.78,10 9,10.22 9,10.5 L9,11.5 L9,11.5 Z M10.56,6.61 C10.5,6.78 10.39,6.94 10.26,7.08 C10.13,7.24 10.12,7.27 9.93,7.46 C9.77,7.63 9.62,7.76 9.41,7.91 C9.3,8 9.21,8.1 9.13,8.18 C9.05,8.26 8.99,8.35 8.94,8.45 C8.89,8.55 8.86,8.64 8.83,8.75 C8.8,8.86 8.8,8.88 8.8,9 L7.13,9 C7.13,8.78 7.13,8.69 7.16,8.52 C7.19,8.33 7.24,8.16 7.3,8 C7.36,7.86 7.44,7.72 7.55,7.58 C7.66,7.45 7.78,7.33 7.96,7.2 C8.23,7.01 8.32,6.9 8.44,6.68 C8.56,6.46 8.64,6.3 8.64,6.09 C8.64,5.82 8.58,5.64 8.44,5.51 C8.31,5.38 8.13,5.32 7.86,5.32 C7.77,5.32 7.67,5.34 7.56,5.37 C7.45,5.4 7.39,5.46 7.31,5.53 C7.23,5.6 7.17,5.64 7.11,5.73 C7.05,5.82 7.02,5.87 7.02,6.01 L5.02,6.01 C5.02,5.63 5.15,5.45 5.29,5.18 C5.45,4.91 5.65,4.68 5.9,4.51 C6.15,4.34 6.45,4.21 6.78,4.13 C7.11,4.05 7.48,4 7.87,4 C8.31,4 8.7,4.05 9.04,4.13 C9.38,4.22 9.67,4.35 9.92,4.52 C10.15,4.69 10.33,4.9 10.47,5.15 C10.6,5.4 10.66,5.7 10.66,6.03 C10.66,6.25 10.66,6.45 10.58,6.62 L10.56,6.61 Z" id="Shape"></path>
        </g>
    </g>
</svg>
